Gurmukhi/0A5A.svg

<svg enable-background="new 0 0 336 592" viewBox="0 0 336 592" xmlns="http://www.w3.org/2000/svg"><path d="m124.353516 263.069763c13.13266-.07489 25.80133-.308533 38.459274-.039093 4.927566.10492 6.301193-1.652344 6.175873-6.358581-.279373-10.491059-.069458-20.994965-.073334-31.493637-.002945-8.023636-.012787-8.027131-7.819336-8.025925-32.495911.005005-64.993057-.127594-97.486557.155578-5.456806.047562-8.352119-1.563568-9.660435-6.785751-.763618-3.047989-2.246528-5.909119-3.281875-8.897262-1.524475-4.399842-.330391-6.120392 4.416061-6.47876 1.326511-.100144 2.664967-.054901 3.997944-.054733 71.157715.009201 142.315445.026626 213.47316.022857 7.159881-.000381 14.307892.931137 21.475708.236695 2.01596-.195313 3.56372.391922 4.341003 2.496215 1.672455 4.527817 3.551331 8.982666 5.113861 13.546769 1.321076 3.858734-.48056 5.709945-4.376983 5.722381-8.665436.027664-17.338288.23613-25.993561-.057617-4.635193-.157303-5.894959 1.459869-5.882385 6.02092.146209 52.992935.09378 105.986435.091949 158.979782-.000061 1.833008.084137 3.673981-.053986 5.497375-.297515 3.927246-2.483276 5.344269-6.080627 3.623963-5.858658-2.801636-11.55899-5.932404-17.368149-8.840363-2.744964-1.374115-2.918533-3.750152-2.914505-6.345062.022003-14.164826.005905-28.329743.005142-42.494629-.001968-36.662048-.099594-73.324677.106202-109.98555.028961-5.156937-1.613648-6.598724-6.579102-6.456772-11.156326.318878-22.327774.09111-33.492935.125443-6.540146.020096-6.531128.054321-6.534744 6.815704-.020203 37.828415-.057801 75.656845-.058228 113.485275-.000076 8.059113-1.337769 15.919281-3.608749 23.597443-6.977661 23.591553-24.625855 31.221924-46.438691 26.556519-23.72583-5.074494-40.29943-20.554505-53.392135-40.04184-8.965981-13.345032-14.752075-27.846375-14.301972-44.415802.472268-17.38559 10.185807-30.931091 26.672081-36.586731 6.704415-2.299957 13.634598-2.917786 21.070031-3.524811m-10.294014 26.409088c-8.285836 4.838135-11.68747 12.267578-11.840531 21.635193-.139747 8.552216 2.033806 16.503601 5.868126 23.993469 6.966789 13.608857 15.983246 25.477234 30.358902 31.971772 13.512406 6.104553 24.200226.953308 28.044663-13.3349 1.158126-4.304291 2.003723-8.824799 2.085586-13.263031.310242-16.820557.161957-33.649109.388123-50.471985.054809-4.07666-1.718415-5.167694-5.409653-5.099091-10.658051.198181-21.31958.224518-31.97995.277863-5.930458.029693-11.524406 1.423797-17.515266 4.29071z"/><path d="m92.976173 404.619415c-7.589447 1.537354-14.4393 1.367432-19.424079-5.053711-4.31849-5.562866-5.098511-11.824157-2.597329-18.368072 2.684365-7.023163 10.404084-10.759033 18.998101-9.410828 7.304496 1.145905 12.72425 6.845581 13.39627 14.088257.886383 9.552948-1.837913 14.624176-10.372963 18.744354z"/></svg>

<svg version="1.1" id="Layer_1" xmlns="http://www.w3.org/2000/svg" xmlns:xlink="http://www.w3.org/1999/xlink" x="0px" y="0px"
	 width="100%" viewBox="0 0 336 592" enable-background="new 0 0 336 592" xml:space="preserve">
<path fill="#000000" opacity="1.000000" stroke="none" 
	d="
M124.353516,263.069763 
	C137.486176,262.994873 150.154846,262.761230 162.812790,263.030670 
	C167.740356,263.135590 169.113983,261.378326 168.988663,256.672089 
	C168.709290,246.181030 168.919205,235.677124 168.915329,225.178452 
	C168.912384,217.154816 168.902542,217.151321 161.095993,217.152527 
	C128.600082,217.157532 96.102936,217.024933 63.609436,217.308105 
	C58.152630,217.355667 55.257317,215.744537 53.949001,210.522354 
	C53.185383,207.474365 51.702473,204.613235 50.667126,201.625092 
	C49.142651,197.225250 50.336735,195.504700 55.083187,195.146332 
	C56.409698,195.046188 57.748154,195.091431 59.081131,195.091599 
	C130.238846,195.100800 201.396576,195.118225 272.554291,195.114456 
	C279.714172,195.114075 286.862183,196.045593 294.029999,195.351151 
	C296.045959,195.155838 297.593719,195.743073 298.371002,197.847366 
	C300.043457,202.375183 301.922333,206.830032 303.484863,211.394135 
	C304.805939,215.252869 303.004303,217.104080 299.107880,217.116516 
	C290.442444,217.144180 281.769592,217.352646 273.114319,217.058899 
	C268.479126,216.901596 267.219360,218.518768 267.231934,223.079819 
	C267.378143,276.072754 267.325714,329.066254 267.323883,382.059601 
	C267.323822,383.892609 267.408020,385.733582 267.269897,387.556976 
	C266.972382,391.484222 264.786621,392.901245 261.189270,391.180939 
	C255.330612,388.379303 249.630280,385.248535 243.821121,382.340576 
	C241.076157,380.966461 240.902588,378.590424 240.906616,375.995514 
	C240.928619,361.830688 240.912521,347.665771 240.911758,333.500885 
	C240.909790,296.838837 240.812164,260.176208 241.017960,223.515335 
	C241.046921,218.358398 239.404312,216.916611 234.438858,217.058563 
	C223.282532,217.377441 212.111084,217.149673 200.945923,217.184006 
	C194.405777,217.204102 194.414795,217.238327 194.411179,223.999710 
	C194.390976,261.828125 194.353378,299.656555 194.352951,337.484985 
	C194.352875,345.544098 193.015182,353.404266 190.744202,361.082428 
	C183.766541,384.673981 166.118347,392.304352 144.305511,387.638947 
	C120.579681,382.564453 104.006081,367.084442 90.913376,347.597107 
	C81.947395,334.252075 76.161301,319.750732 76.611404,303.181305 
	C77.083672,285.795715 86.797211,272.250214 103.283485,266.594574 
	C109.987900,264.294617 116.918083,263.676788 124.353516,263.069763 
M114.059502,289.478851 
	C105.773666,294.316986 102.372032,301.746429 102.218971,311.114044 
	C102.079224,319.666260 104.252777,327.617645 108.087097,335.107513 
	C115.053886,348.716370 124.070343,360.584747 138.445999,367.079285 
	C151.958405,373.183838 162.646225,368.032593 166.490662,353.744385 
	C167.648788,349.440094 168.494385,344.919586 168.576248,340.481354 
	C168.886490,323.660797 168.738205,306.832245 168.964371,290.009369 
	C169.019180,285.932709 167.245956,284.841675 163.554718,284.910278 
	C152.896667,285.108459 142.235138,285.134796 131.574768,285.188141 
	C125.644310,285.217834 120.050362,286.611938 114.059502,289.478851 
z"/>
<path fill="#000000" opacity="1.000000" stroke="none" 
	d="
M92.976173,404.619415 
	C85.386726,406.156769 78.536873,405.986847 73.552094,399.565704 
	C69.233604,394.002838 68.453583,387.741547 70.954765,381.197632 
	C73.639130,374.174469 81.358849,370.438599 89.952866,371.786804 
	C97.257362,372.932709 102.677116,378.632385 103.349136,385.875061 
	C104.235519,395.428009 101.511223,400.499237 92.976173,404.619415 
z"/>
</svg>
